X: 501
M: C|
L: 1/8
K: D
V: 1
f |\
d>efg abaf | gefd beef |
d>efg abaf | ge (a/g/f/e/) fdde |\
defg abaf | gefd beef |\
(d/e/f) (e/f/g) (a/g/f) (g/f/e) | f>bef dDD |]
V: 2 clef=bass middle=d
z |\
d2d2 d2d2 | d2d2 e2e2 |\
d2d2 d2d2 | g2a2 d2d :|\
z |\
d2d2 d2d2 | d2d2 e2e2 |
d2d2 d2d2 | G2A2 D2D2 |\
d2d2 d2d2 | d2d2 e2e2 |
d2e2 f2g2 | a2A2 D2D |]

